examples/depth-of-field/assets/teal-orange.cube
LUT_3D_SIZE 5
# stereoframe teal-orange cinematic LUT (CC0)
0.00000 0.01700 0.03275
0.24113 0.01672 0.02968
0.50725 0.01644 0.02661
0.77338 0.01616 0.02354
1.00000 0.01588 0.02047
0.00000 0.27856 0.02242
0.25333 0.27828 0.01935
0.51946 0.27800 0.01629
0.78559 0.27772 0.01322
1.00000 0.27745 0.01015
0.00000 0.54012 0.01210
0.26553 0.53984 0.00903
0.53166 0.53956 0.00596
0.79779 0.53929 0.00289
1.00000 0.53901 0.00000
0.01161 0.80168 0.00177
0.27774 0.80140 0.00000
0.54386 0.80113 0.00000
0.80999 0.80085 0.00000
1.00000 0.80057 0.00000
0.02381 1.00000 0.00000
0.28994 1.00000 0.00000
0.55607 1.00000 0.00000
0.82219 1.00000 0.00000
1.00000 1.00000 0.00000
0.00000 0.01691 0.29421
0.24236 0.01663 0.29114
0.50849 0.01635 0.28807
0.77461 0.01607 0.28500
1.00000 0.01579 0.28193
0.00000 0.27847 0.28388
0.25456 0.27819 0.28081
0.52069 0.27791 0.27774
0.78682 0.27763 0.27467
1.00000 0.27735 0.27160
0.00064 0.54003 0.27356
0.26677 0.53975 0.27049
0.53289 0.53947 0.26742
0.79902 0.53919 0.26435
1.00000 0.53891 0.26128
0.01284 0.80159 0.26323
0.27897 0.80131 0.26016
0.54510 0.80103 0.25709
0.81122 0.80075 0.25402
1.00000 0.80047 0.25095
0.02504 1.00000 0.25290
0.29117 1.00000 0.24984
0.55730 1.00000 0.24677
0.82343 1.00000 0.24370
1.00000 1.00000 0.24063
0.00000 0.01681 0.55567
0.24359 0.01653 0.55260
0.50972 0.01625 0.54953
0.77585 0.01597 0.54646
1.00000 0.01569 0.54339
0.00000 0.27837 0.54534
0.25579 0.27809 0.54227
0.52192 0.27781 0.53920
0.78805 0.27753 0.53613
1.00000 0.27726 0.53306
0.00187 0.53993 0.53501
0.26800 0.53965 0.53194
0.53412 0.53937 0.52887
0.80025 0.53910 0.52581
1.00000 0.53882 0.52274
0.01407 0.80149 0.52469
0.28020 0.80122 0.52162
0.54633 0.80094 0.51855
0.81246 0.80066 0.51548
1.00000 0.80038 0.51241
0.02628 1.00000 0.51436
0.29240 1.00000 0.51129
0.55853 1.00000 0.50822
0.82466 1.00000 0.50515
1.00000 1.00000 0.50208
0.00000 0.01672 0.81712
0.24482 0.01644 0.81405
0.51095 0.01616 0.81098
0.77708 0.01588 0.80791
1.00000 0.01560 0.80485
0.00000 0.27828 0.80680
0.25703 0.27800 0.80373
0.52315 0.27772 0.80066
0.78928 0.27744 0.79759
1.00000 0.27716 0.79452
0.00310 0.53984 0.79647
0.26923 0.53956 0.79340
0.53536 0.53928 0.79033
0.80148 0.53900 0.78726
1.00000 0.53872 0.78419
0.01531 0.80140 0.78615
0.28143 0.80112 0.78308
0.54756 0.80084 0.78001
0.81369 0.80056 0.77694
1.00000 0.80028 0.77387
0.02751 1.00000 0.77582
0.29364 1.00000 0.77275
0.55976 1.00000 0.76968
0.82589 1.00000 0.76661
1.00000 1.00000 0.76354
0.00000 0.01662 1.00000
0.24606 0.01634 1.00000
0.51218 0.01606 1.00000
0.77831 0.01578 1.00000
1.00000 0.01550 1.00000
0.00000 0.27818 1.00000
0.25826 0.27790 1.00000
0.52439 0.27762 1.00000
0.79051 0.27735 1.00000
1.00000 0.27707 1.00000
0.00433 0.53974 1.00000
0.27046 0.53946 1.00000
0.53659 0.53919 1.00000
0.80272 0.53891 1.00000
1.00000 0.53863 1.00000
0.01654 0.80130 1.00000
0.28266 0.80103 1.00000
0.54879 0.80075 1.00000
0.81492 0.80047 1.00000
1.00000 0.80019 1.00000
0.02874 1.00000 1.00000
0.29487 1.00000 1.00000
0.56100 1.00000 1.00000
0.82712 1.00000 1.00000
1.00000 1.00000 1.00000
