examples/depth-of-field/assets/teal-orange.cube
LUT_3D_SIZE 17
# stereoframe teal-orange cinematic LUT (CC0)
0.00000 0.01700 0.03275
0.04153 0.01693 0.03198
0.10806 0.01686 0.03122
0.17460 0.01679 0.03045
0.24113 0.01672 0.02968
0.30766 0.01665 0.02891
0.37419 0.01658 0.02815
0.44072 0.01651 0.02738
0.50725 0.01644 0.02661
0.57379 0.01637 0.02584
0.64032 0.01630 0.02508
0.70685 0.01623 0.02431
0.77338 0.01616 0.02354
0.83991 0.01609 0.02277
0.90645 0.01602 0.02201
0.97298 0.01595 0.02124
1.00000 0.01588 0.02047
0.00000 0.08239 0.03017
0.04458 0.08232 0.02940
0.11111 0.08225 0.02863
0.17765 0.08218 0.02787
0.24418 0.08211 0.02710
0.31071 0.08204 0.02633
0.37724 0.08197 0.02556
0.44377 0.08190 0.02480
0.51031 0.08183 0.02403
0.57684 0.08176 0.02326
0.64337 0.08169 0.02250
0.70990 0.08162 0.02173
0.77643 0.08155 0.02096
0.84297 0.08148 0.02019
0.90950 0.08141 0.01943
0.97603 0.08134 0.01866
1.00000 0.08127 0.01789
0.00000 0.14778 0.02759
0.04763 0.14771 0.02682
0.11417 0.14764 0.02605
0.18070 0.14757 0.02529
0.24723 0.14750 0.02452
0.31376 0.14743 0.02375
0.38029 0.14736 0.02298
0.44682 0.14729 0.02222
0.51336 0.14722 0.02145
0.57989 0.14715 0.02068
0.64642 0.14708 0.01991
0.71295 0.14701 0.01915
0.77948 0.14694 0.01838
0.84602 0.14687 0.01761
0.91255 0.14680 0.01684
0.97908 0.14673 0.01608
1.00000 0.14666 0.01531
0.00000 0.21317 0.02501
0.05068 0.21310 0.02424
0.11722 0.21303 0.02347
0.18375 0.21296 0.02270
0.25028 0.21289 0.02194
0.31681 0.21282 0.02117
0.38334 0.21275 0.02040
0.44988 0.21268 0.01963
0.51641 0.21261 0.01887
0.58294 0.21254 0.01810
0.64947 0.21247 0.01733
0.71600 0.21240 0.01656
0.78253 0.21233 0.01580
0.84907 0.21226 0.01503
0.91560 0.21219 0.01426
0.98213 0.21212 0.01350
1.00000 0.21205 0.01273
0.00000 0.27856 0.02242
0.05373 0.27849 0.02166
0.12027 0.27842 0.02089
0.18680 0.27835 0.02012
0.25333 0.27828 0.01935
0.31986 0.27821 0.01859
0.38639 0.27814 0.01782
0.45293 0.27807 0.01705
0.51946 0.27800 0.01629
0.58599 0.27793 0.01552
0.65252 0.27786 0.01475
0.71905 0.27779 0.01398
0.78559 0.27772 0.01322
0.85212 0.27765 0.01245
0.91865 0.27758 0.01168
0.98518 0.27751 0.01091
1.00000 0.27745 0.01015
0.00000 0.34395 0.01984
0.05679 0.34388 0.01908
0.12332 0.34381 0.01831
0.18985 0.34374 0.01754
0.25638 0.34367 0.01677
0.32291 0.34360 0.01601
0.38945 0.34353 0.01524
0.45598 0.34346 0.01447
0.52251 0.34339 0.01370
0.58904 0.34332 0.01294
0.65557 0.34325 0.01217
0.72210 0.34318 0.01140
0.78864 0.34311 0.01063
0.85517 0.34304 0.00987
0.92170 0.34297 0.00910
0.98823 0.34291 0.00833
1.00000 0.34284 0.00757
0.00000 0.40934 0.01726
0.05984 0.40927 0.01649
0.12637 0.40920 0.01573
0.19290 0.40913 0.01496
0.25943 0.40906 0.01419
0.32596 0.40899 0.01342
0.39250 0.40892 0.01266
0.45903 0.40885 0.01189
0.52556 0.40878 0.01112
0.59209 0.40871 0.01036
0.65862 0.40864 0.00959
0.72516 0.40857 0.00882
0.79169 0.40850 0.00805
0.85822 0.40844 0.00729
0.92475 0.40837 0.00652
0.99128 0.40830 0.00575
1.00000 0.40823 0.00498
0.00000 0.47473 0.01468
0.06289 0.47466 0.01391
0.12942 0.47459 0.01315
0.19595 0.47452 0.01238
0.26248 0.47445 0.01161
0.32901 0.47438 0.01084
0.39555 0.47431 0.01008
0.46208 0.47424 0.00931
0.52861 0.47417 0.00854
0.59514 0.47410 0.00777
0.66167 0.47403 0.00701
0.72821 0.47396 0.00624
0.79474 0.47390 0.00547
0.86127 0.47383 0.00470
0.92780 0.47376 0.00394
0.99433 0.47369 0.00317
1.00000 0.47362 0.00240
0.00000 0.54012 0.01210
0.06594 0.54005 0.01133
0.13247 0.53998 0.01056
0.19900 0.53991 0.00980
0.26553 0.53984 0.00903
0.33207 0.53977 0.00826
0.39860 0.53970 0.00749
0.46513 0.53963 0.00673
0.53166 0.53956 0.00596
0.59819 0.53949 0.00519
0.66472 0.53943 0.00443
0.73126 0.53936 0.00366
0.79779 0.53929 0.00289
0.86432 0.53922 0.00212
0.93085 0.53915 0.00136
0.99738 0.53908 0.00059
1.00000 0.53901 0.00000
0.00246 0.60551 0.00952
0.06899 0.60544 0.00875
0.13552 0.60537 0.00798
0.20205 0.60530 0.00722
0.26858 0.60523 0.00645
0.33512 0.60516 0.00568
0.40165 0.60509 0.00491
0.46818 0.60502 0.00415
0.53471 0.60495 0.00338
0.60124 0.60489 0.00261
0.66778 0.60482 0.00184
0.73431 0.60475 0.00108
0.80084 0.60468 0.00031
0.86737 0.60461 0.00000
0.93390 0.60454 0.00000
1.00000 0.60447 0.00000
1.00000 0.60440 0.00000
0.00551 0.67090 0.00694
0.07204 0.67083 0.00617
0.13857 0.67076 0.00540
0.20510 0.67069 0.00463
0.27164 0.67062 0.00387
0.33817 0.67055 0.00310
0.40470 0.67048 0.00233
0.47123 0.67041 0.00156
0.53776 0.67035 0.00080
0.60429 0.67028 0.00003
0.67083 0.67021 0.00000
0.73736 0.67014 0.00000
0.80389 0.67007 0.00000
0.87042 0.67000 0.00000
0.93695 0.66993 0.00000
1.00000 0.66986 0.00000
1.00000 0.66979 0.00000
0.00856 0.73629 0.00435
0.07509 0.73622 0.00359
0.14162 0.73615 0.00282
0.20815 0.73608 0.00205
0.27469 0.73601 0.00128
0.34122 0.73594 0.00052
0.40775 0.73588 0.00000
0.47428 0.73581 0.00000
0.54081 0.73574 0.00000
0.60735 0.73567 0.00000
0.67388 0.73560 0.00000
0.74041 0.73553 0.00000
0.80694 0.73546 0.00000
0.87347 0.73539 0.00000
0.94000 0.73532 0.00000
1.00000 0.73525 0.00000
1.00000 0.73518 0.00000
0.01161 0.80168 0.00177
0.07814 0.80161 0.00101
0.14467 0.80154 0.00024
0.21120 0.80147 0.00000
0.27774 0.80140 0.00000
0.34427 0.80134 0.00000
0.41080 0.80127 0.00000
0.47733 0.80120 0.00000
0.54386 0.80113 0.00000
0.61040 0.80106 0.00000
0.67693 0.80099 0.00000
0.74346 0.80092 0.00000
0.80999 0.80085 0.00000
0.87652 0.80078 0.00000
0.94306 0.80071 0.00000
1.00000 0.80064 0.00000
1.00000 0.80057 0.00000
0.01466 0.86707 0.00000
0.08119 0.86700 0.00000
0.14772 0.86693 0.00000
0.21426 0.86686 0.00000
0.28079 0.86680 0.00000
0.34732 0.86673 0.00000
0.41385 0.86666 0.00000
0.48038 0.86659 0.00000
0.54692 0.86652 0.00000
0.61345 0.86645 0.00000
0.67998 0.86638 0.00000
0.74651 0.86631 0.00000
0.81304 0.86624 0.00000
0.87957 0.86617 0.00000
0.94611 0.86610 0.00000
1.00000 0.86603 0.00000
1.00000 0.86596 0.00000
0.01771 0.93246 0.00000
0.08424 0.93239 0.00000
0.15077 0.93233 0.00000
0.21731 0.93226 0.00000
0.28384 0.93219 0.00000
0.35037 0.93212 0.00000
0.41690 0.93205 0.00000
0.48343 0.93198 0.00000
0.54997 0.93191 0.00000
0.61650 0.93184 0.00000
0.68303 0.93177 0.00000
0.74956 0.93170 0.00000
0.81609 0.93163 0.00000
0.88263 0.93156 0.00000
0.94916 0.93149 0.00000
1.00000 0.93142 0.00000
1.00000 0.93135 0.00000
0.02076 0.99785 0.00000
0.08729 0.99779 0.00000
0.15383 0.99772 0.00000
0.22036 0.99765 0.00000
0.28689 0.99758 0.00000
0.35342 0.99751 0.00000
0.41995 0.99744 0.00000
0.48648 0.99737 0.00000
0.55302 0.99730 0.00000
0.61955 0.99723 0.00000
0.68608 0.99716 0.00000
0.75261 0.99709 0.00000
0.81914 0.99702 0.00000
0.88568 0.99695 0.00000
0.95221 0.99688 0.00000
1.00000 0.99681 0.00000
1.00000 0.99674 0.00000
0.02381 1.00000 0.00000
0.09034 1.00000 0.00000
0.15688 1.00000 0.00000
0.22341 1.00000 0.00000
0.28994 1.00000 0.00000
0.35647 1.00000 0.00000
0.42300 1.00000 0.00000
0.48954 1.00000 0.00000
0.55607 1.00000 0.00000
0.62260 1.00000 0.00000
0.68913 1.00000 0.00000
0.75566 1.00000 0.00000
0.82219 1.00000 0.00000
0.88873 1.00000 0.00000
0.95526 1.00000 0.00000
1.00000 1.00000 0.00000
1.00000 1.00000 0.00000
0.00000 0.01698 0.09811
0.04184 0.01691 0.09735
0.10837 0.01684 0.09658
0.17490 0.01677 0.09581
0.24144 0.01670 0.09504
0.30797 0.01663 0.09428
0.37450 0.01656 0.09351
0.44103 0.01649 0.09274
0.50756 0.01642 0.09198
0.57409 0.01635 0.09121
0.64063 0.01628 0.09044
0.70716 0.01621 0.08967
0.77369 0.01614 0.08891
0.84022 0.01607 0.08814
0.90675 0.01600 0.08737
0.97329 0.01593 0.08660
1.00000 0.01586 0.08584
0.00000 0.08237 0.09553
0.04489 0.08230 0.09477
0.11142 0.08223 0.09400
0.17795 0.08216 0.09323
0.24449 0.08209 0.09246
0.31102 0.08202 0.09170
0.37755 0.08195 0.09093
0.44408 0.08188 0.09016
0.51061 0.08181 0.08939
0.57715 0.08174 0.08863
0.64368 0.08167 0.08786
0.71021 0.08160 0.08709
0.77674 0.08153 0.08632
0.84327 0.08146 0.08556
0.90980 0.08139 0.08479
0.97634 0.08132 0.08402
1.00000 0.08125 0.08326
0.00000 0.14776 0.09295
0.04794 0.14769 0.09218
0.11447 0.14762 0.09142
0.18101 0.14755 0.09065
0.24754 0.14748 0.08988
0.31407 0.14741 0.08911
0.38060 0.14734 0.08835
0.44713 0.14727 0.08758
0.51366 0.14720 0.08681
0.58020 0.14713 0.08605
0.64673 0.14706 0.08528
0.71326 0.14699 0.08451
0.77979 0.14692 0.08374
0.84632 0.14685 0.08298
0.91286 0.14678 0.08221
0.97939 0.14671 0.08144
1.00000 0.14664 0.08067
0.00000 0.21315 0.09037
0.05099 0.21308 0.08960
0.11752 0.21301 0.08884
0.18406 0.21294 0.08807
0.25059 0.21287 0.08730
0.31712 0.21280 0.08653
0.38365 0.21273 0.08577
0.45018 0.21266 0.08500
0.51672 0.21259 0.08423
0.58325 0.21252 0.08346
0.64978 0.21245 0.08270
0.71631 0.21238 0.08193
0.78284 0.21231 0.08116
0.84937 0.21224 0.08039
0.91591 0.21217 0.07963
0.98244 0.21210 0.07886
1.00000 0.21203 0.07809
0.00000 0.27854 0.08779
0.05404 0.27847 0.08702
0.12057 0.27840 0.08625
0.18711 0.27833 0.08549
0.25364 0.27826 0.08472
0.32017 0.27819 0.08395
0.38670 0.27812 0.08318
0.45323 0.27805 0.08242
0.51977 0.27798 0.08165
0.58630 0.27791 0.08088
0.65283 0.27784 0.08012
0.71936 0.27777 0.07935
0.78589 0.27770 0.07858
0.85243 0.27763 0.07781
0.91896 0.27756 0.07705
0.98549 0.27749 0.07628
1.00000 0.27742 0.07551
0.00000 0.34393 0.08521
0.05709 0.34386 0.08444
0.12363 0.34379 0.08367
0.19016 0.34372 0.08291
0.25669 0.34365 0.08214
0.32322 0.34358 0.08137
0.38975 0.34351 0.08060
0.45628 0.34344 0.07984
0.52282 0.34337 0.07907
0.58935 0.34330 0.07830
0.65588 0.34323 0.07753
0.72241 0.34316 0.07677
0.78894 0.34309 0.07600
0.85548 0.34302 0.07523
0.92201 0.34295 0.07446
0.98854 0.34288 0.07370
1.00000 0.34281 0.07293
0.00000 0.40932 0.08263
0.06014 0.40925 0.08186
0.12668 0.40918 0.08109
0.19321 0.40911 0.08032
0.25974 0.40904 0.07956
0.32627 0.40897 0.07879
0.39280 0.40890 0.07802
0.45934 0.40883 0.07725
0.52587 0.40876 0.07649
0.59240 0.40869 0.07572
0.65893 0.40862 0.07495
0.72546 0.40855 0.07418
0.79200 0.40848 0.07342
0.85853 0.40841 0.07265
0.92506 0.40834 0.07188
0.99159 0.40827 0.07112
1.00000 0.40820 0.07035
0.00000 0.47471 0.08004
0.06320 0.47464 0.07928
0.12973 0.47457 0.07851
0.19626 0.47450 0.07774
0.26279 0.47443 0.07698
0.32932 0.47436 0.07621
0.39585 0.47429 0.07544
0.46239 0.47422 0.07467
0.52892 0.47415 0.07391
0.59545 0.47408 0.07314
0.66198 0.47401 0.07237
0.72851 0.47394 0.07160
0.79505 0.47387 0.07084
0.86158 0.47380 0.07007
0.92811 0.47373 0.06930
0.99464 0.47366 0.06853
1.00000 0.47359 0.06777
0.00000 0.54010 0.07746
0.06625 0.54003 0.07670
0.13278 0.53996 0.07593
0.19931 0.53989 0.07516
0.26584 0.53982 0.07439
0.33237 0.53975 0.07363
0.39891 0.53968 0.07286
0.46544 0.53961 0.07209
0.53197 0.53954 0.07132
0.59850 0.53947 0.07056
0.66503 0.53940 0.06979
0.73156 0.53933 0.06902
0.79810 0.53926 0.06825
0.86463 0.53919 0.06749
0.93116 0.53912 0.06672
0.99769 0.53905 0.06595
1.00000 0.53898 0.06519
0.00276 0.60549 0.07488
0.06930 0.60542 0.07411
0.13583 0.60535 0.07335
0.20236 0.60528 0.07258
0.26889 0.60521 0.07181
0.33542 0.60514 0.07104
0.40196 0.60507 0.07028
0.46849 0.60500 0.06951
0.53502 0.60493 0.06874
0.60155 0.60486 0.06798
0.66808 0.60479 0.06721
0.73462 0.60472 0.06644
0.80115 0.60465 0.06567
0.86768 0.60458 0.06491
0.93421 0.60451 0.06414
1.00000 0.60444 0.06337
1.00000 0.60437 0.06260
0.00582 0.67088 0.07230
0.07235 0.67081 0.07153
0.13888 0.67074 0.07077
0.20541 0.67067 0.07000
0.27194 0.67060 0.06923
0.33848 0.67053 0.06846
0.40501 0.67046 0.06770
0.47154 0.67039 0.06693
0.53807 0.67032 0.06616
0.60460 0.67025 0.06539
0.67113 0.67018 0.06463
0.73767 0.67011 0.06386
0.80420 0.67004 0.06309
0.87073 0.66997 0.06232
0.93726 0.66990 0.06156
1.00000 0.66983 0.06079
1.00000 0.66976 0.06002
0.00887 0.73627 0.06972
0.07540 0.73620 0.06895
0.14193 0.73613 0.06818
0.20846 0.73606 0.06742
0.27499 0.73599 0.06665
0.34153 0.73592 0.06588
0.40806 0.73585 0.06511
0.47459 0.73578 0.06435
0.54112 0.73571 0.06358
0.60765 0.73564 0.06281
0.67419 0.73557 0.06205
0.74072 0.73550 0.06128
0.80725 0.73543 0.06051
0.87378 0.73536 0.05974
0.94031 0.73529 0.05898
1.00000 0.73522 0.05821
1.00000 0.73515 0.05744
0.01192 0.80166 0.06714
0.07845 0.80159 0.06637
0.14498 0.80152 0.06560
0.21151 0.80145 0.06484
0.27804 0.80138 0.06407
0.34458 0.80131 0.06330
0.41111 0.80124 0.06253
0.47764 0.80117 0.06177
0.54417 0.80110 0.06100
0.61070 0.80103 0.06023
0.67724 0.80096 0.05946
0.74377 0.80089 0.05870
0.81030 0.80082 0.05793
0.87683 0.80075 0.05716
0.94336 0.80068 0.05639
1.00000 0.80061 0.05563
1.00000 0.80054 0.05486
0.01497 0.86705 0.06456
0.08150 0.86698 0.06379
0.14803 0.86691 0.06302
0.21456 0.86684 0.06225
0.28110 0.86677 0.06149
0.34763 0.86670 0.06072
0.41416 0.86663 0.05995
0.48069 0.86656 0.05918
0.54722 0.86649 0.05842
0.61375 0.86642 0.05765
0.68029 0.86635 0.05688
0.74682 0.86628 0.05611
0.81335 0.86621 0.05535
0.87988 0.86614 0.05458
0.94641 0.86607 0.05381
1.00000 0.86600 0.05305
1.00000 0.86593 0.05228
0.01802 0.93244 0.06197
0.08455 0.93237 0.06121
0.15108 0.93230 0.06044
0.21761 0.93223 0.05967
0.28415 0.93216 0.05891
0.35068 0.93209 0.05814
0.41721 0.93202 0.05737
0.48374 0.93195 0.05660
0.55027 0.93188 0.05584
0.61681 0.93181 0.05507
0.68334 0.93174 0.05430
0.74987 0.93167 0.05353
0.81640 0.93160 0.05277
0.88293 0.93153 0.05200
0.94947 0.93146 0.05123
1.00000 0.93139 0.05046
1.00000 0.93132 0.04970
0.02107 0.99783 0.05939
0.08760 0.99776 0.05863
0.15413 0.99769 0.05786
0.22067 0.99762 0.05709
0.28720 0.99755 0.05632
0.35373 0.99748 0.05556
0.42026 0.99741 0.05479
0.48679 0.99734 0.05402
0.55332 0.99727 0.05325
0.61986 0.99720 0.05249
0.68639 0.99713 0.05172
0.75292 0.99706 0.05095
0.81945 0.99699 0.05018
0.88598 0.99692 0.04942
0.95252 0.99685 0.04865
1.00000 0.99678 0.04788
1.00000 0.99672 0.04712
0.02412 1.00000 0.05681
0.09065 1.00000 0.05604
0.15718 1.00000 0.05528
0.22372 1.00000 0.05451
0.29025 1.00000 0.05374
0.35678 1.00000 0.05297
0.42331 1.00000 0.05221
0.48984 1.00000 0.05144
0.55638 1.00000 0.05067
0.62291 1.00000 0.04991
0.68944 1.00000 0.04914
0.75597 1.00000 0.04837
0.82250 1.00000 0.04760
0.88903 1.00000 0.04684
0.95557 1.00000 0.04607
1.00000 1.00000 0.04530
1.00000 1.00000 0.04453
0.00000 0.01695 0.16348
0.04215 0.01688 0.16271
0.10868 0.01681 0.16194
0.17521 0.01674 0.16118
0.24174 0.01667 0.16041
0.30828 0.01660 0.15964
0.37481 0.01653 0.15887
0.44134 0.01646 0.15811
0.50787 0.01639 0.15734
0.57440 0.01632 0.15657
0.64093 0.01626 0.15581
0.70747 0.01619 0.15504
0.77400 0.01612 0.15427
0.84053 0.01605 0.15350
0.90706 0.01598 0.15274
0.97359 0.01591 0.15197
1.00000 0.01584 0.15120
0.00000 0.08234 0.16090
0.04520 0.08227 0.16013
0.11173 0.08220 0.15936
0.17826 0.08213 0.15860
0.24479 0.08206 0.15783
0.31133 0.08199 0.15706
0.37786 0.08192 0.15629
0.44439 0.08185 0.15553
0.51092 0.08178 0.15476
0.57745 0.08172 0.15399
0.64399 0.08165 0.15322
0.71052 0.08158 0.15246
0.77705 0.08151 0.15169
0.84358 0.08144 0.15092
0.91011 0.08137 0.15015
0.97664 0.08130 0.14939
1.00000 0.08123 0.14862
0.00000 0.14773 0.15832
0.04825 0.14766 0.15755
0.11478 0.14759 0.15678
0.18131 0.14752 0.15601
0.24784 0.14745 0.15525
0.31438 0.14738 0.15448
0.38091 0.14731 0.15371
0.44744 0.14724 0.15294
0.51397 0.14718 0.15218
0.58050 0.14711 0.15141
0.64704 0.14704 0.15064
0.71357 0.14697 0.14988
0.78010 0.14690 0.14911
0.84663 0.14683 0.14834
0.91316 0.14676 0.14757
0.97970 0.14669 0.14681
1.00000 0.14662 0.14604
0.00000 0.21312 0.15573
0.05130 0.21305 0.15497
0.11783 0.21298 0.15420
0.18436 0.21291 0.15343
0.25090 0.21284 0.15267
0.31743 0.21277 0.15190
0.38396 0.21271 0.15113
0.45049 0.21264 0.15036
0.51702 0.21257 0.14960
0.58356 0.21250 0.14883
0.65009 0.21243 0.14806
0.71662 0.21236 0.14729
0.78315 0.21229 0.14653
0.84968 0.21222 0.14576
0.91621 0.21215 0.14499
0.98275 0.21208 0.14422
1.00000 0.21201 0.14346
0.00000 0.27851 0.15315
0.05435 0.27844 0.15239
0.12088 0.27837 0.15162
0.18741 0.27830 0.15085
0.25395 0.27823 0.15008
0.32048 0.27817 0.14932
0.38701 0.27810 0.14855
0.45354 0.27803 0.14778
0.52007 0.27796 0.14701
0.58661 0.27789 0.14625
0.65314 0.27782 0.14548
0.71967 0.27775 0.14471
0.78620 0.27768 0.14394
0.85273 0.27761 0.14318
0.91927 0.27754 0.14241
0.98580 0.27747 0.14164
1.00000 0.27740 0.14088
0.00000 0.34390 0.15057
0.05740 0.34383 0.14980
0.12393 0.34376 0.14904
0.19047 0.34369 0.14827
0.25700 0.34363 0.14750
0.32353 0.34356 0.14673
0.39006 0.34349 0.14597
0.45659 0.34342 0.14520
0.52312 0.34335 0.14443
0.58966 0.34328 0.14367
0.65619 0.34321 0.14290
0.72272 0.34314 0.14213
0.78925 0.34307 0.14136
0.85578 0.34300 0.14060
0.92232 0.34293 0.13983
0.98885 0.34286 0.13906
1.00000 0.34279 0.13829
0.00000 0.40929 0.14799
0.06045 0.40922 0.14722
0.12698 0.40916 0.14646
0.19352 0.40909 0.14569
0.26005 0.40902 0.14492
0.32658 0.40895 0.14415
0.39311 0.40888 0.14339
0.45964 0.40881 0.14262
0.52618 0.40874 0.14185
0.59271 0.40867 0.14108
0.65924 0.40860 0.14032
0.72577 0.40853 0.13955
0.79230 0.40846 0.13878
0.85883 0.40839 0.13801
0.92537 0.40832 0.13725
0.99190 0.40825 0.13648
1.00000 0.40818 0.13571
0.00000 0.47468 0.14541
0.06350 0.47462 0.14464
0.13004 0.47455 0.14387
0.19657 0.47448 0.14311
0.26310 0.47441 0.14234
0.32963 0.47434 0.14157
0.39616 0.47427 0.14080
0.46269 0.47420 0.14004
0.52923 0.47413 0.13927
0.59576 0.47406 0.13850
0.66229 0.47399 0.13774
0.72882 0.47392 0.13697
0.79535 0.47385 0.13620
0.86189 0.47378 0.13543
0.92842 0.47371 0.13467
0.99495 0.47364 0.13390
1.00000 0.47357 0.13313
0.00002 0.54008 0.14283
0.06655 0.54001 0.14206
0.13309 0.53994 0.14129
0.19962 0.53987 0.14053
0.26615 0.53980 0.13976
0.33268 0.53973 0.13899
0.39921 0.53966 0.13822
0.46575 0.53959 0.13746
0.53228 0.53952 0.13669
0.59881 0.53945 0.13592
0.66534 0.53938 0.13515
0.73187 0.53931 0.13439
0.79840 0.53924 0.13362
0.86494 0.53917 0.13285
0.93147 0.53910 0.13208
0.99800 0.53903 0.13132
1.00000 0.53896 0.13055
0.00307 0.60547 0.14025
0.06960 0.60540 0.13948
0.13614 0.60533 0.13871
0.20267 0.60526 0.13794
0.26920 0.60519 0.13718
0.33573 0.60512 0.13641
0.40226 0.60505 0.13564
0.46880 0.60498 0.13487
0.53533 0.60491 0.13411
0.60186 0.60484 0.13334
0.66839 0.60477 0.13257
0.73492 0.60470 0.13181
0.80146 0.60463 0.13104
0.86799 0.60456 0.13027
0.93452 0.60449 0.12950
1.00000 0.60442 0.12874
1.00000 0.60435 0.12797
0.00612 0.67086 0.13766
0.07266 0.67079 0.13690
0.13919 0.67072 0.13613
0.20572 0.67065 0.13536
0.27225 0.67058 0.13460
0.33878 0.67051 0.13383
0.40531 0.67044 0.13306
0.47185 0.67037 0.13229
0.53838 0.67030 0.13153
0.60491 0.67023 0.13076
0.67144 0.67016 0.12999
0.73797 0.67009 0.12922
0.80451 0.67002 0.12846
0.87104 0.66995 0.12769
0.93757 0.66988 0.12692
1.00000 0.66981 0.12615
1.00000 0.66974 0.12539
0.00917 0.73625 0.13508
0.07571 0.73618 0.13432
0.14224 0.73611 0.13355
0.20877 0.73604 0.13278
0.27530 0.73597 0.13201
0.34183 0.73590 0.13125
0.40837 0.73583 0.13048
0.47490 0.73576 0.12971
0.54143 0.73569 0.12894
0.60796 0.73562 0.12818
0.67449 0.73555 0.12741
0.74103 0.73548 0.12664
0.80756 0.73541 0.12587
0.87409 0.73534 0.12511
0.94062 0.73527 0.12434
1.00000 0.73520 0.12357
1.00000 0.73513 0.12281
0.01223 0.80164 0.13250
0.07876 0.80157 0.13173
0.14529 0.80150 0.13097
0.21182 0.80143 0.13020
0.27835 0.80136 0.12943
0.34488 0.80129 0.12866
0.41142 0.80122 0.12790
0.47795 0.80115 0.12713
0.54448 0.80108 0.12636
0.61101 0.80101 0.12560
0.67754 0.80094 0.12483
0.74408 0.80087 0.12406
0.81061 0.80080 0.12329
0.87714 0.80073 0.12253
0.94367 0.80066 0.12176
1.00000 0.80059 0.12099
1.00000 0.80052 0.12022
0.01528 0.86703 0.12992
0.08181 0.86696 0.12915
0.14834 0.86689 0.12839
0.21487 0.86682 0.12762
0.28140 0.86675 0.12685
0.34794 0.86668 0.12608
0.41447 0.86661 0.12532
0.48100 0.86654 0.12455
0.54753 0.86647 0.12378
0.61406 0.86640 0.12301
0.68059 0.86633 0.12225
0.74713 0.86626 0.12148
0.81366 0.86619 0.12071
0.88019 0.86612 0.11994
0.94672 0.86605 0.11918
1.00000 0.86598 0.11841
1.00000 0.86591 0.11764
0.01833 0.93242 0.12734
0.08486 0.93235 0.12657
0.15139 0.93228 0.12580
0.21792 0.93221 0.12504
0.28445 0.93214 0.12427
0.35099 0.93207 0.12350
0.41752 0.93200 0.12273
0.48405 0.93193 0.12197
0.55058 0.93186 0.12120
0.61711 0.93179 0.12043
0.68365 0.93172 0.11967
0.75018 0.93165 0.11890
0.81671 0.93158 0.11813
0.88324 0.93151 0.11736
0.94977 0.93144 0.11660
1.00000 0.93137 0.11583
1.00000 0.93130 0.11506
0.02138 0.99781 0.12476
0.08791 0.99774 0.12399
0.15444 0.99767 0.12322
0.22097 0.99760 0.12246
0.28751 0.99753 0.12169
0.35404 0.99746 0.12092
0.42057 0.99739 0.12015
0.48710 0.99732 0.11939
0.55363 0.99725 0.11862
0.62016 0.99718 0.11785
0.68670 0.99711 0.11708
0.75323 0.99704 0.11632
0.81976 0.99697 0.11555
0.88629 0.99690 0.11478
0.95282 0.99683 0.11401
1.00000 0.99676 0.11325
1.00000 0.99669 0.11248
0.02443 1.00000 0.12218
0.09096 1.00000 0.12141
0.15749 1.00000 0.12064
0.22402 1.00000 0.11987
0.29056 1.00000 0.11911
0.35709 1.00000 0.11834
0.42362 1.00000 0.11757
0.49015 1.00000 0.11680
0.55668 1.00000 0.11604
0.62322 1.00000 0.11527
0.68975 1.00000 0.11450
0.75628 1.00000 0.11374
0.82281 1.00000 0.11297
0.88934 1.00000 0.11220
0.95587 1.00000 0.11143
1.00000 1.00000 0.11067
1.00000 1.00000 0.10990
0.00000 0.01693 0.22884
0.04246 0.01686 0.22808
0.10899 0.01679 0.22731
0.17552 0.01672 0.22654
0.24205 0.01665 0.22577
0.30858 0.01658 0.22501
0.37512 0.01651 0.22424
0.44165 0.01644 0.22347
0.50818 0.01637 0.22270
0.57471 0.01630 0.22194
0.64124 0.01623 0.22117
0.70777 0.01616 0.22040
0.77431 0.01609 0.21963
0.84084 0.01602 0.21887
0.90737 0.01595 0.21810
0.97390 0.01588 0.21733
1.00000 0.01581 0.21657
0.00000 0.08232 0.22626
0.04551 0.08225 0.22549
0.11204 0.08218 0.22473
0.17857 0.08211 0.22396
0.24510 0.08204 0.22319
0.31163 0.08197 0.22243
0.37817 0.08190 0.22166
0.44470 0.08183 0.22089
0.51123 0.08176 0.22012
0.57776 0.08169 0.21936
0.64429 0.08162 0.21859
0.71083 0.08155 0.21782
0.77736 0.08148 0.21705
0.84389 0.08141 0.21629
0.91042 0.08134 0.21552
0.97695 0.08127 0.21475
