examples/depth-of-field/assets/teal-orange.cube
LUT_3D_SIZE 9
# stereoframe teal-orange cinematic LUT (CC0)
0.00000 0.01700 0.03275
0.10806 0.01686 0.03122
0.24113 0.01672 0.02968
0.37419 0.01658 0.02815
0.50725 0.01644 0.02661
0.64032 0.01630 0.02508
0.77338 0.01616 0.02354
0.90645 0.01602 0.02201
1.00000 0.01588 0.02047
0.00000 0.14778 0.02759
0.11417 0.14764 0.02605
0.24723 0.14750 0.02452
0.38029 0.14736 0.02298
0.51336 0.14722 0.02145
0.64642 0.14708 0.01991
0.77948 0.14694 0.01838
0.91255 0.14680 0.01684
1.00000 0.14666 0.01531
0.00000 0.27856 0.02242
0.12027 0.27842 0.02089
0.25333 0.27828 0.01935
0.38639 0.27814 0.01782
0.51946 0.27800 0.01629
0.65252 0.27786 0.01475
0.78559 0.27772 0.01322
0.91865 0.27758 0.01168
1.00000 0.27745 0.01015
0.00000 0.40934 0.01726
0.12637 0.40920 0.01573
0.25943 0.40906 0.01419
0.39250 0.40892 0.01266
0.52556 0.40878 0.01112
0.65862 0.40864 0.00959
0.79169 0.40850 0.00805
0.92475 0.40837 0.00652
1.00000 0.40823 0.00498
0.00000 0.54012 0.01210
0.13247 0.53998 0.01056
0.26553 0.53984 0.00903
0.39860 0.53970 0.00749
0.53166 0.53956 0.00596
0.66472 0.53943 0.00443
0.79779 0.53929 0.00289
0.93085 0.53915 0.00136
1.00000 0.53901 0.00000
0.00551 0.67090 0.00694
0.13857 0.67076 0.00540
0.27164 0.67062 0.00387
0.40470 0.67048 0.00233
0.53776 0.67035 0.00080
0.67083 0.67021 0.00000
0.80389 0.67007 0.00000
0.93695 0.66993 0.00000
1.00000 0.66979 0.00000
0.01161 0.80168 0.00177
0.14467 0.80154 0.00024
0.27774 0.80140 0.00000
0.41080 0.80127 0.00000
0.54386 0.80113 0.00000
0.67693 0.80099 0.00000
0.80999 0.80085 0.00000
0.94306 0.80071 0.00000
1.00000 0.80057 0.00000
0.01771 0.93246 0.00000
0.15077 0.93233 0.00000
0.28384 0.93219 0.00000
0.41690 0.93205 0.00000
0.54997 0.93191 0.00000
0.68303 0.93177 0.00000
0.81609 0.93163 0.00000
0.94916 0.93149 0.00000
1.00000 0.93135 0.00000
0.02381 1.00000 0.00000
0.15688 1.00000 0.00000
0.28994 1.00000 0.00000
0.42300 1.00000 0.00000
0.55607 1.00000 0.00000
0.68913 1.00000 0.00000
0.82219 1.00000 0.00000
0.95526 1.00000 0.00000
1.00000 1.00000 0.00000
0.00000 0.01695 0.16348
0.10868 0.01681 0.16194
0.24174 0.01667 0.16041
0.37481 0.01653 0.15887
0.50787 0.01639 0.15734
0.64093 0.01626 0.15581
0.77400 0.01612 0.15427
0.90706 0.01598 0.15274
1.00000 0.01584 0.15120
0.00000 0.14773 0.15832
0.11478 0.14759 0.15678
0.24784 0.14745 0.15525
0.38091 0.14731 0.15371
0.51397 0.14718 0.15218
0.64704 0.14704 0.15064
0.78010 0.14690 0.14911
0.91316 0.14676 0.14757
1.00000 0.14662 0.14604
0.00000 0.27851 0.15315
0.12088 0.27837 0.15162
0.25395 0.27823 0.15008
0.38701 0.27810 0.14855
0.52007 0.27796 0.14701
0.65314 0.27782 0.14548
0.78620 0.27768 0.14394
0.91927 0.27754 0.14241
1.00000 0.27740 0.14088
0.00000 0.40929 0.14799
0.12698 0.40916 0.14646
0.26005 0.40902 0.14492
0.39311 0.40888 0.14339
0.52618 0.40874 0.14185
0.65924 0.40860 0.14032
0.79230 0.40846 0.13878
0.92537 0.40832 0.13725
1.00000 0.40818 0.13571
0.00002 0.54008 0.14283
0.13309 0.53994 0.14129
0.26615 0.53980 0.13976
0.39921 0.53966 0.13822
0.53228 0.53952 0.13669
0.66534 0.53938 0.13515
0.79840 0.53924 0.13362
0.93147 0.53910 0.13208
1.00000 0.53896 0.13055
0.00612 0.67086 0.13766
0.13919 0.67072 0.13613
0.27225 0.67058 0.13460
0.40531 0.67044 0.13306
0.53838 0.67030 0.13153
0.67144 0.67016 0.12999
0.80451 0.67002 0.12846
0.93757 0.66988 0.12692
1.00000 0.66974 0.12539
0.01223 0.80164 0.13250
0.14529 0.80150 0.13097
0.27835 0.80136 0.12943
0.41142 0.80122 0.12790
0.54448 0.80108 0.12636
0.67754 0.80094 0.12483
0.81061 0.80080 0.12329
0.94367 0.80066 0.12176
1.00000 0.80052 0.12022
0.01833 0.93242 0.12734
0.15139 0.93228 0.12580
0.28445 0.93214 0.12427
0.41752 0.93200 0.12273
0.55058 0.93186 0.12120
0.68365 0.93172 0.11967
0.81671 0.93158 0.11813
0.94977 0.93144 0.11660
1.00000 0.93130 0.11506
0.02443 1.00000 0.12218
0.15749 1.00000 0.12064
0.29056 1.00000 0.11911
0.42362 1.00000 0.11757
0.55668 1.00000 0.11604
0.68975 1.00000 0.11450
0.82281 1.00000 0.11297
0.95587 1.00000 0.11143
1.00000 1.00000 0.10990
0.00000 0.01691 0.29421
0.10930 0.01677 0.29267
0.24236 0.01663 0.29114
0.37542 0.01649 0.28960
0.50849 0.01635 0.28807
0.64155 0.01621 0.28653
0.77461 0.01607 0.28500
0.90768 0.01593 0.28346
1.00000 0.01579 0.28193
0.00000 0.14769 0.28904
0.11540 0.14755 0.28751
0.24846 0.14741 0.28598
0.38152 0.14727 0.28444
0.51459 0.14713 0.28291
0.64765 0.14699 0.28137
0.78072 0.14685 0.27984
0.91378 0.14671 0.27830
1.00000 0.14657 0.27677
0.00000 0.27847 0.28388
0.12150 0.27833 0.28235
0.25456 0.27819 0.28081
0.38763 0.27805 0.27928
0.52069 0.27791 0.27774
0.65375 0.27777 0.27621
0.78682 0.27763 0.27467
0.91988 0.27749 0.27314
1.00000 0.27735 0.27160
0.00000 0.40925 0.27872
0.12760 0.40911 0.27718
0.26066 0.40897 0.27565
0.39373 0.40883 0.27411
0.52679 0.40869 0.27258
0.65986 0.40855 0.27105
0.79292 0.40841 0.26951
0.92598 0.40827 0.26798
1.00000 0.40813 0.26644
0.00064 0.54003 0.27356
0.13370 0.53989 0.27202
0.26677 0.53975 0.27049
0.39983 0.53961 0.26895
0.53289 0.53947 0.26742
0.66596 0.53933 0.26588
0.79902 0.53919 0.26435
0.93208 0.53905 0.26281
1.00000 0.53891 0.26128
0.00674 0.67081 0.26839
0.13980 0.67067 0.26686
0.27287 0.67053 0.26532
0.40593 0.67039 0.26379
0.53899 0.67025 0.26225
0.67206 0.67011 0.26072
0.80512 0.66997 0.25919
0.93819 0.66983 0.25765
1.00000 0.66969 0.25612
0.01284 0.80159 0.26323
0.14590 0.80145 0.26170
0.27897 0.80131 0.26016
0.41203 0.80117 0.25863
0.54510 0.80103 0.25709
0.67816 0.80089 0.25556
0.81122 0.80075 0.25402
0.94429 0.80061 0.25249
1.00000 0.80047 0.25095
0.01894 0.93237 0.25807
0.15201 0.93223 0.25653
0.28507 0.93209 0.25500
0.41813 0.93195 0.25346
0.55120 0.93181 0.25193
0.68426 0.93167 0.25039
0.81733 0.93153 0.24886
0.95039 0.93139 0.24732
1.00000 0.93125 0.24579
0.02504 1.00000 0.25290
0.15811 1.00000 0.25137
0.29117 1.00000 0.24984
0.42424 1.00000 0.24830
0.55730 1.00000 0.24677
0.69036 1.00000 0.24523
0.82343 1.00000 0.24370
0.95649 1.00000 0.24216
1.00000 1.00000 0.24063
0.00000 0.01686 0.42494
0.10991 0.01672 0.42340
0.24298 0.01658 0.42187
0.37604 0.01644 0.42033
0.50910 0.01630 0.41880
0.64217 0.01616 0.41726
0.77523 0.01602 0.41573
0.90829 0.01588 0.41419
1.00000 0.01574 0.41266
0.00000 0.14764 0.41977
0.11601 0.14750 0.41824
0.24908 0.14736 0.41670
0.38214 0.14722 0.41517
0.51520 0.14708 0.41363
0.64827 0.14694 0.41210
0.78133 0.14680 0.41057
0.91440 0.14666 0.40903
1.00000 0.14652 0.40750
0.00000 0.27842 0.41461
0.12211 0.27828 0.41308
0.25518 0.27814 0.41154
0.38824 0.27800 0.41001
0.52131 0.27786 0.40847
0.65437 0.27772 0.40694
0.78743 0.27758 0.40540
0.92050 0.27744 0.40387
1.00000 0.27730 0.40233
0.00000 0.40920 0.40945
0.12822 0.40906 0.40791
0.26128 0.40892 0.40638
0.39434 0.40878 0.40484
0.52741 0.40864 0.40331
0.66047 0.40850 0.40177
0.79353 0.40836 0.40024
0.92660 0.40822 0.39870
1.00000 0.40808 0.39717
0.00125 0.53998 0.40429
0.13432 0.53984 0.40275
0.26738 0.53970 0.40122
0.40045 0.53956 0.39968
0.53351 0.53942 0.39815
0.66657 0.53928 0.39661
0.79964 0.53914 0.39508
0.93270 0.53900 0.39354
1.00000 0.53886 0.39201
0.00736 0.67076 0.39912
0.14042 0.67062 0.39759
0.27348 0.67048 0.39605
0.40655 0.67034 0.39452
0.53961 0.67020 0.39298
0.67267 0.67006 0.39145
0.80574 0.66992 0.38991
0.93880 0.66978 0.38838
1.00000 0.66964 0.38684
0.01346 0.80154 0.39396
0.14652 0.80140 0.39242
0.27958 0.80126 0.39089
0.41265 0.80112 0.38936
0.54571 0.80098 0.38782
0.67878 0.80084 0.38629
0.81184 0.80070 0.38475
0.94490 0.80057 0.38322
1.00000 0.80043 0.38168
0.01956 0.93232 0.38880
0.15262 0.93218 0.38726
0.28569 0.93204 0.38573
0.41875 0.93190 0.38419
0.55181 0.93176 0.38266
0.68488 0.93162 0.38112
0.81794 0.93149 0.37959
0.95100 0.93135 0.37805
1.00000 0.93121 0.37652
0.02566 1.00000 0.38363
0.15872 1.00000 0.38210
0.29179 1.00000 0.38056
0.42485 1.00000 0.37903
0.55792 1.00000 0.37749
0.69098 1.00000 0.37596
0.82404 1.00000 0.37443
0.95711 1.00000 0.37289
1.00000 1.00000 0.37136
0.00000 0.01681 0.55567
0.11053 0.01667 0.55413
0.24359 0.01653 0.55260
0.37666 0.01639 0.55106
0.50972 0.01625 0.54953
0.64278 0.01611 0.54799
0.77585 0.01597 0.54646
0.90891 0.01583 0.54492
1.00000 0.01569 0.54339
0.00000 0.14759 0.55050
0.11663 0.14745 0.54897
0.24969 0.14731 0.54743
0.38276 0.14717 0.54590
0.51582 0.14703 0.54436
0.64888 0.14689 0.54283
0.78195 0.14675 0.54129
0.91501 0.14661 0.53976
1.00000 0.14647 0.53822
0.00000 0.27837 0.54534
0.12273 0.27823 0.54380
0.25579 0.27809 0.54227
0.38886 0.27795 0.54074
0.52192 0.27781 0.53920
0.65499 0.27767 0.53767
0.78805 0.27753 0.53613
0.92111 0.27740 0.53460
1.00000 0.27726 0.53306
0.00000 0.40915 0.54018
0.12883 0.40901 0.53864
0.26190 0.40887 0.53711
0.39496 0.40873 0.53557
0.52802 0.40859 0.53404
0.66109 0.40845 0.53250
0.79415 0.40832 0.53097
0.92721 0.40818 0.52943
1.00000 0.40804 0.52790
0.00187 0.53993 0.53501
0.13493 0.53979 0.53348
0.26800 0.53965 0.53194
0.40106 0.53951 0.53041
0.53412 0.53937 0.52887
0.66719 0.53924 0.52734
0.80025 0.53910 0.52581
0.93332 0.53896 0.52427
1.00000 0.53882 0.52274
0.00797 0.67071 0.52985
0.14104 0.67057 0.52832
0.27410 0.67043 0.52678
0.40716 0.67030 0.52525
0.54023 0.67016 0.52371
0.67329 0.67002 0.52218
0.80635 0.66988 0.52064
0.93942 0.66974 0.51911
1.00000 0.66960 0.51757
0.01407 0.80149 0.52469
0.14714 0.80135 0.52315
0.28020 0.80122 0.52162
0.41326 0.80108 0.52008
0.54633 0.80094 0.51855
0.67939 0.80080 0.51701
0.81246 0.80066 0.51548
0.94552 0.80052 0.51395
1.00000 0.80038 0.51241
0.02017 0.93228 0.51953
0.15324 0.93214 0.51799
0.28630 0.93200 0.51646
0.41937 0.93186 0.51492
0.55243 0.93172 0.51339
0.68549 0.93158 0.51185
0.81856 0.93144 0.51032
0.95162 0.93130 0.50878
1.00000 0.93116 0.50725
0.02628 1.00000 0.51436
0.15934 1.00000 0.51283
0.29240 1.00000 0.51129
0.42547 1.00000 0.50976
0.55853 1.00000 0.50822
0.69159 1.00000 0.50669
0.82466 1.00000 0.50515
0.95772 1.00000 0.50362
1.00000 1.00000 0.50208
0.00000 0.01676 0.68639
0.11114 0.01662 0.68486
0.24421 0.01648 0.68332
0.37727 0.01634 0.68179
0.51033 0.01621 0.68026
0.64340 0.01607 0.67872
0.77646 0.01593 0.67719
0.90953 0.01579 0.67565
1.00000 0.01565 0.67412
0.00000 0.14754 0.68123
0.11725 0.14740 0.67970
0.25031 0.14726 0.67816
0.38337 0.14713 0.67663
0.51644 0.14699 0.67509
0.64950 0.14685 0.67356
0.78256 0.14671 0.67202
0.91563 0.14657 0.67049
1.00000 0.14643 0.66895
0.00000 0.27832 0.67607
0.12335 0.27818 0.67453
0.25641 0.27805 0.67300
0.38947 0.27791 0.67146
0.52254 0.27777 0.66993
0.65560 0.27763 0.66839
0.78867 0.27749 0.66686
0.92173 0.27735 0.66533
1.00000 0.27721 0.66379
0.00000 0.40911 0.67091
0.12945 0.40897 0.66937
0.26251 0.40883 0.66784
0.39558 0.40869 0.66630
0.52864 0.40855 0.66477
0.66170 0.40841 0.66323
0.79477 0.40827 0.66170
0.92783 0.40813 0.66016
1.00000 0.40799 0.65863
0.00249 0.53989 0.66574
0.13555 0.53975 0.66421
0.26861 0.53961 0.66267
0.40168 0.53947 0.66114
0.53474 0.53933 0.65960
0.66780 0.53919 0.65807
0.80087 0.53905 0.65653
0.93393 0.53891 0.65500
1.00000 0.53877 0.65346
0.00859 0.67067 0.66058
0.14165 0.67053 0.65905
0.27472 0.67039 0.65751
0.40778 0.67025 0.65598
0.54084 0.67011 0.65444
0.67391 0.66997 0.65291
0.80697 0.66983 0.65137
0.94003 0.66969 0.64984
1.00000 0.66955 0.64830
0.01469 0.80145 0.65542
0.14775 0.80131 0.65388
0.28082 0.80117 0.65235
0.41388 0.80103 0.65081
0.54694 0.80089 0.64928
0.68001 0.80075 0.64774
0.81307 0.80061 0.64621
0.94614 0.80047 0.64467
1.00000 0.80033 0.64314
0.02079 0.93223 0.65025
0.15385 0.93209 0.64872
0.28692 0.93195 0.64718
0.41998 0.93181 0.64565
0.55305 0.93167 0.64412
0.68611 0.93153 0.64258
0.81917 0.93139 0.64105
0.95224 0.93125 0.63951
1.00000 0.93111 0.63798
0.02689 1.00000 0.64509
0.15996 1.00000 0.64356
0.29302 1.00000 0.64202
0.42608 1.00000 0.64049
0.55915 1.00000 0.63895
0.69221 1.00000 0.63742
0.82527 1.00000 0.63588
0.95834 1.00000 0.63435
1.00000 1.00000 0.63281
0.00000 0.01672 0.81712
0.11176 0.01658 0.81559
0.24482 0.01644 0.81405
0.37789 0.01630 0.81252
0.51095 0.01616 0.81098
0.64401 0.01602 0.80945
0.77708 0.01588 0.80791
0.91014 0.01574 0.80638
1.00000 0.01560 0.80485
0.00000 0.14750 0.81196
0.11786 0.14736 0.81043
0.25092 0.14722 0.80889
0.38399 0.14708 0.80736
0.51705 0.14694 0.80582
0.65012 0.14680 0.80429
0.78318 0.14666 0.80275
0.91624 0.14652 0.80122
1.00000 0.14638 0.79968
0.00000 0.27828 0.80680
0.12396 0.27814 0.80526
0.25703 0.27800 0.80373
0.39009 0.27786 0.80219
0.52315 0.27772 0.80066
0.65622 0.27758 0.79912
0.78928 0.27744 0.79759
0.92235 0.27730 0.79605
1.00000 0.27716 0.79452
0.00000 0.40906 0.80163
0.13006 0.40892 0.80010
0.26313 0.40878 0.79856
0.39619 0.40864 0.79703
0.52926 0.40850 0.79550
0.66232 0.40836 0.79396
0.79538 0.40822 0.79243
0.92845 0.40808 0.79089
1.00000 0.40794 0.78936
0.00310 0.53984 0.79647
0.13617 0.53970 0.79494
0.26923 0.53956 0.79340
0.40229 0.53942 0.79187
0.53536 0.53928 0.79033
0.66842 0.53914 0.78880
0.80148 0.53900 0.78726
0.93455 0.53886 0.78573
1.00000 0.53872 0.78419
0.00920 0.67062 0.79131
0.14227 0.67048 0.78977
0.27533 0.67034 0.78824
0.40839 0.67020 0.78670
0.54146 0.67006 0.78517
0.67452 0.66992 0.78364
0.80759 0.66978 0.78210
0.94065 0.66964 0.78057
1.00000 0.66950 0.77903
0.01531 0.80140 0.78615
0.14837 0.80126 0.78461
0.28143 0.80112 0.78308
0.41450 0.80098 0.78154
0.54756 0.80084 0.78001
0.68062 0.80070 0.77847
0.81369 0.80056 0.77694
0.94675 0.80042 0.77540
1.00000 0.80028 0.77387
0.02141 0.93218 0.78098
0.15447 0.93204 0.77945
0.28753 0.93190 0.77791
0.42060 0.93176 0.77638
0.55366 0.93162 0.77484
0.68673 0.93148 0.77331
0.81979 0.93134 0.77177
0.95285 0.93120 0.77024
1.00000 0.93106 0.76871
0.02751 1.00000 0.77582
0.16057 1.00000 0.77429
0.29364 1.00000 0.77275
0.42670 1.00000 0.77122
0.55976 1.00000 0.76968
0.69283 1.00000 0.76815
0.82589 1.00000 0.76661
0.95895 1.00000 0.76508
1.00000 1.00000 0.76354
0.00000 0.01667 0.94785
0.11238 0.01653 0.94632
0.24544 0.01639 0.94478
0.37850 0.01625 0.94325
0.51157 0.01611 0.94171
0.64463 0.01597 0.94018
0.77769 0.01583 0.93864
0.91076 0.01569 0.93711
1.00000 0.01555 0.93557
0.00000 0.14745 0.94269
0.11848 0.14731 0.94115
0.25154 0.14717 0.93962
0.38460 0.14703 0.93808
0.51767 0.14689 0.93655
0.65073 0.14675 0.93502
0.78380 0.14661 0.93348
0.91686 0.14647 0.93195
1.00000 0.14633 0.93041
0.00000 0.27823 0.93753
0.12458 0.27809 0.93599
0.25764 0.27795 0.93446
0.39071 0.27781 0.93292
0.52377 0.27767 0.93139
0.65683 0.27753 0.92985
0.78990 0.27739 0.92832
0.92296 0.27725 0.92678
1.00000 0.27711 0.92525
0.00000 0.40901 0.93236
0.13068 0.40887 0.93083
0.26374 0.40873 0.92929
0.39681 0.40859 0.92776
0.52987 0.40845 0.92622
0.66294 0.40831 0.92469
0.79600 0.40817 0.92315
0.92906 0.40803 0.92162
1.00000 0.40789 0.92009
0.00372 0.53979 0.92720
0.13678 0.53965 0.92567
0.26985 0.53951 0.92413
0.40291 0.53937 0.92260
0.53597 0.53923 0.92106
0.66904 0.53909 0.91953
0.80210 0.53895 0.91799
0.93516 0.53881 0.91646
1.00000 0.53867 0.91492
0.00982 0.67057 0.92204
0.14288 0.67043 0.92050
0.27595 0.67029 0.91897
0.40901 0.67015 0.91743
0.54207 0.67001 0.91590
0.67514 0.66987 0.91436
0.80820 0.66973 0.91283
0.94127 0.66959 0.91129
1.00000 0.66946 0.90976
0.01592 0.80135 0.91687
0.14898 0.80121 0.91534
0.28205 0.80107 0.91381
0.41511 0.80093 0.91227
0.54818 0.80079 0.91074
0.68124 0.80065 0.90920
0.81430 0.80052 0.90767
0.94737 0.80038 0.90613
1.00000 0.80024 0.90460
0.02202 0.93213 0.91171
0.15509 0.93199 0.91018
0.28815 0.93185 0.90864
0.42121 0.93171 0.90711
0.55428 0.93157 0.90557
0.68734 0.93144 0.90404
0.82041 0.93130 0.90250
0.95347 0.93116 0.90097
1.00000 0.93102 0.89943
0.02812 1.00000 0.90655
0.16119 1.00000 0.90501
0.29425 1.00000 0.90348
0.42732 1.00000 0.90194
0.56038 1.00000 0.90041
0.69344 1.00000 0.89888
0.82651 1.00000 0.89734
0.95957 1.00000 0.89581
1.00000 1.00000 0.89427
0.00000 0.01662 1.00000
0.11299 0.01648 1.00000
0.24606 0.01634 1.00000
0.37912 0.01620 1.00000
0.51218 0.01606 1.00000
0.64525 0.01592 1.00000
0.77831 0.01578 1.00000
0.91137 0.01564 1.00000
1.00000 0.01550 1.00000
0.00000 0.14740 1.00000
0.11909 0.14726 1.00000
0.25216 0.14712 1.00000
0.38522 0.14698 1.00000
0.51828 0.14684 1.00000
0.65135 0.14670 1.00000
0.78441 0.14656 1.00000
0.91748 0.14642 1.00000
1.00000 0.14629 1.00000
0.00000 0.27818 1.00000
0.12519 0.27804 1.00000
0.25826 0.27790 1.00000
0.39132 0.27776 1.00000
0.52439 0.27762 1.00000
0.65745 0.27748 1.00000
0.79051 0.27735 1.00000
0.92358 0.27721 1.00000
1.00000 0.27707 1.00000
0.00000 0.40896 1.00000
0.13130 0.40882 1.00000
0.26436 0.40868 1.00000
0.39742 0.40854 1.00000
0.53049 0.40840 1.00000
0.66355 0.40827 1.00000
0.79661 0.40813 1.00000
0.92968 0.40799 1.00000
1.00000 0.40785 1.00000
0.00433 0.53974 1.00000
0.13740 0.53960 1.00000
0.27046 0.53946 1.00000
0.40353 0.53932 1.00000
0.53659 0.53919 1.00000
0.66965 0.53905 1.00000
0.80272 0.53891 1.00000
0.93578 0.53877 1.00000
1.00000 0.53863 1.00000
0.01044 0.67052 1.00000
0.14350 0.67038 1.00000
0.27656 0.67025 1.00000
0.40963 0.67011 1.00000
0.54269 0.66997 1.00000
0.67575 0.66983 1.00000
0.80882 0.66969 1.00000
0.94188 0.66955 1.00000
1.00000 0.66941 1.00000
0.01654 0.80130 1.00000
0.14960 0.80117 1.00000
0.28266 0.80103 1.00000
0.41573 0.80089 1.00000
0.54879 0.80075 1.00000
0.68186 0.80061 1.00000
0.81492 0.80047 1.00000
0.94798 0.80033 1.00000
1.00000 0.80019 1.00000
0.02264 0.93209 1.00000
0.15570 0.93195 1.00000
0.28877 0.93181 1.00000
0.42183 0.93167 1.00000
0.55489 0.93153 1.00000
0.68796 0.93139 1.00000
0.82102 0.93125 1.00000
0.95408 0.93111 1.00000
1.00000 0.93097 1.00000
0.02874 1.00000 1.00000
0.16180 1.00000 1.00000
0.29487 1.00000 1.00000
0.42793 1.00000 1.00000
0.56100 1.00000 1.00000
0.69406 1.00000 1.00000
0.82712 1.00000 1.00000
0.96019 1.00000 1.00000
1.00000 1.00000 1.00000
